flags/tv.svg

<svg width="512" height="512" viewBox="0 0 512 512" fill="none" xmlns="http://www.w3.org/2000/svg">
<rect width="512" height="512" fill="var(--flag-palette-light-blue, #338af3)"/>
<rect width="256" height="256" fill="var(--flag-palette-blue, #0052b4)"/>
<path d="M232 256H256V232L152 128L256 24V0H232L128 104L24 0H0V24L104 128L0 232V256H24L128 152L232 256Z" fill="var(--flag-palette-white, #eeeeee)"/>
<path d="M256 160V96H160V0H96V96H0V160H96V256H160V160H256Z" fill="var(--flag-palette-white, #eeeeee)"/>
<path d="M256 144V112H144V0H112V112H0V144H112V256H144V144H256Z" fill="var(--flag-palette-bright-red, #d80027)"/>
<path d="M0 16V0L96 96H80L0 16Z" fill="var(--flag-palette-bright-red, #d80027)"/>
<path d="M256 240L256 256L160 160L176 160L256 240Z" fill="var(--flag-palette-bright-red, #d80027)"/>
<path d="M16 256L0 256L96 160L96 176L16 256Z" fill="var(--flag-palette-bright-red, #d80027)"/>
<path d="M240 -6.99382e-07L256 0L160 96L160 80L240 -6.99382e-07Z" fill="var(--flag-palette-bright-red, #d80027)"/>
<path d="M279.406 422.957L284.932 439.963H302.813L288.348 450.473L293.874 467.478L279.406 456.969L264.941 467.478L270.467 450.473L256 439.963H273.88L279.406 422.957Z" fill="var(--flag-palette-yellow, #ffda44)"/>
<path d="M421.811 311.65L427.336 328.656H445.217L430.752 339.167L436.279 356.172L421.811 345.663L407.346 356.172L412.872 339.167L398.404 328.656H416.285L421.811 311.65Z" fill="var(--flag-palette-yellow, #ffda44)"/>
<path d="M457.493 144.695L463.019 161.701H480.9L466.435 172.211L471.96 189.216L457.493 178.707L443.028 189.216L448.554 172.211L434.087 161.701H451.968L457.493 144.695Z" fill="var(--flag-palette-yellow, #ffda44)"/>
<path d="M466.333 267.129L471.858 284.136H489.739L475.274 294.646L480.8 311.651L466.333 301.142L451.868 311.651L457.394 294.646L442.926 284.136H460.807L466.333 267.129Z" fill="var(--flag-palette-yellow, #ffda44)"/>
<path d="M305.046 382.958L320.981 391.077L333.624 378.434L330.828 396.093L346.759 404.211L329.097 407.009L326.3 424.67L318.184 408.737L300.522 411.536L313.165 398.893L305.046 382.958Z" fill="var(--flag-palette-yellow, #ffda44)"/>
<path d="M305.046 316.175L320.981 324.293L333.624 311.65L330.828 329.31L346.759 337.427L329.097 340.225L326.3 357.886L318.184 341.954L300.522 344.752L313.165 332.109L305.046 316.175Z" fill="var(--flag-palette-yellow, #ffda44)"/>
<path d="M360.698 358.983L376.633 367.102L389.276 354.459L386.48 372.118L402.411 380.236L384.749 383.034L381.952 400.695L373.836 384.761L356.174 387.561L368.817 374.918L360.698 358.983Z" fill="var(--flag-palette-yellow, #ffda44)"/>
<path d="M360.698 216.002L376.633 224.12L389.276 211.477L386.48 229.137L402.411 237.254L384.749 240.052L381.952 257.713L373.836 241.781L356.174 244.579L368.817 231.936L360.698 216.002Z" fill="var(--flag-palette-yellow, #ffda44)"/>
<path d="M414.635 214.289L430.57 222.407L443.213 209.764L440.416 227.424L456.348 235.541L438.686 238.339L435.889 256L427.773 240.068L410.111 242.866L422.754 230.223L414.635 214.289Z" fill="var(--flag-palette-yellow, #ffda44)"/>
</svg>

<svg xmlns="http://www.w3.org/2000/svg" width="512" height="512" fill="none"><path fill="var(--flag-palette-light-blue, #338af3)" d="M0 0h512v512H0z"/><path fill="var(--flag-palette-blue, #0052b4)" d="M0 0h256v256H0z"/><path fill="var(--flag-palette-white, #eeeeee)" d="M232 256h24v-24L152 128 256 24V0h-24L128 104 24 0H0v24l104 104L0 232v24h24l104-104z"/><path fill="var(--flag-palette-white, #eeeeee)" d="M256 160V96h-96V0H96v96H0v64h96v96h64v-96z"/><path fill="var(--flag-palette-bright-red, #d80027)" d="M256 144v-32H144V0h-32v112H0v32h112v112h32V144z"/><path fill="var(--flag-palette-bright-red, #d80027)" d="M0 16V0l96 96H80zm256 224v16l-96-96h16zM16 256H0l96-96v16zM240 0h16l-96 96V80z"/><path fill="var(--flag-palette-yellow, #ffda44)" d="m279.4 423 5.5 17h18l-14.6 10.5 5.6 17-14.5-10.5-14.5 10.5 5.6-17L256 440h17.9zm142.4-111.3 5.5 17h18l-14.5 10.5 5.5 17-14.5-10.5-14.5 10.5 5.6-17-14.5-10.5h17.9zm35.7-167 5.5 17h18l-14.5 10.5 5.6 17-14.5-10.5-14.5 10.5 5.6-17-14.5-10.5H452zm8.8 122.4 5.6 17h17.8l-14.4 10.5 5.5 17-14.5-10.5-14.4 10.6 5.5-17-14.5-10.6h18zM305 383l16 8 12.6-12.6-2.8 17.7 16 8.1L329 407l-2.8 17.7-8.1-16-17.7 2.8 12.7-12.6zm0-66.8 16 8 12.6-12.6-2.8 17.7 16 8.1-17.7 2.8-2.8 17.7-8.1-16-17.7 2.9 12.7-12.7zm55.7 42.8 16 8.1 12.6-12.6-2.8 17.6 16 8.1-17.8 2.8-2.7 17.7-8.2-16-17.6 2.9 12.6-12.7zm0-143 16 8.1 12.6-12.6-2.8 17.6 16 8.2-17.8 2.8-2.7 17.6-8.2-16-17.6 2.9 12.6-12.7zm53.9-1.7 16 8.1 12.6-12.6-2.8 17.6 16 8.1-17.7 2.8-2.8 17.7-8.1-16-17.8 3 12.7-12.7z"/></svg>
